Yaru++/apps/scalable/jdownloader.svg

<svg height="256" width="256" xmlns="http://www.w3.org/2000/svg" xmlns:xlink="http://www.w3.org/1999/xlink">
  <filter id="filter11191" color-interpolation-filters="sRGB" height="1.024" width="1.024" x="-.01" y="-.01">
    <feGaussianBlur stdDeviation="1.12"/>
  </filter>
  <filter id="filter11210" color-interpolation-filters="sRGB" height="1.096" width="1.096" x="-.05" y="-.05">
    <feGaussianBlur stdDeviation="4.48"/>
  </filter>
  <filter id="filter985" color-interpolation-filters="sRGB" height="1.023" width="1.025" x="-.01" y="-.01">
    <feGaussianBlur stdDeviation=".316"/>
  </filter>
  <path d="m225.7391 178.08578a118.66892 118.1451 0 0 1 -4.38718 7.12447 118.66892 118.1451 0 0 1 -7.17882 9.40109 118.66892 118.1451 0 0 1 -8.08523 8.64084 118.66892 118.1451 0 0 1 -8.91092 7.79406 118.66892 118.1451 0 0 1 -4.59827 3.2738l29.95695 26.3861 30.27565-66.31446z" filter="url(#filter985)" opacity=".1"/>
  <circle cx="128.752" cy="127.248" filter="url(#filter11210)" opacity=".1" r="112"/>
  <circle cx="128.752" cy="125.248" filter="url(#filter11191)" opacity=".1" r="112"/>
  <circle cx="128.752" cy="123.248" opacity=".1" r="114"/>
  <circle cx="128.752" cy="123.248" fill="#006064" r="112"/>
  <path d="m128.752 11.248003a112 112 0 0 0 -111.999999 111.999997 112 112 0 0 0 .04102 1.16992 112 112 0 0 1 111.958979-111.169917 112 112 0 0 1 111.95898 110.830077 112 112 0 0 0 .041-.83008 112 112 0 0 0 -112-111.999997z" fill="#fff" opacity=".3"/>
  <g transform="matrix(2.0245198 0 0 2.0245198 1.244057 163.23328)">
    <g fill="#004d40" transform="translate(0 -80)">
      <path d="m90.011719 108.88867c-.272868.15501-.527013.33778-.802735.48828l.03906.0352c.27136-.15147.49505-.36789.763672-.52344z"/>
      <path d="m98.757812 18.333984c.452311.387819.882731.79925 1.322268 1.201172-.405228-.362094-.769072-.792479-1.181642-1.140625-.04002 0-.098-.05495-.140626-.06055z"/>
      <path d="m94.943359 15.355469c.739273.53009 1.472001 1.067988 2.183594 1.632812-.08764-.136002-.19704-.196813-.275391-.353515-.639079-.423288-1.272424-.851637-1.908203-1.279297z"/>
    </g>
    <path d="m22.217227-9.5167668-5.270579-5.2591472-4.676069-2.926829-.297255-9.660825 1.177592-7.317074 4.973321-7.031247 7.019819-7.900154.58308-4.092989-3.509909-2.046492 8.494665-1.760672 6.436736 2.926829-2.046492 2.34375 7.317073-1.463415 6.722561.58308-8.483233 4.390244-2.629572 2.629575.868903 4.984756 2.926829.583077 2.926829-4.973321 4.104419-2.641007 4.092989 2.046495 1.463415 3.807164-8.483233 4.104421 2.926829 2.046492-9.077743 2.926829-4.676066 4.973324-7.031251 4.092989-.285822 4.984756-4.687502-6.44817-5.853658.297254-1.76067 5.853659zm36.88262-54.4321682-2.343749 3.212655 3.807164 5.567833-.880334 2.629575 2.926829 2.926829 7.614331-6.733993-1.760673-2.046495.297258-3.212651-4.390244-3.224087zm-20.785059 79.904729 1.463414 4.092986 3.224084 4.687502c12.587655-2.926829 22.237045-9.95808 29.554119-17.858233l-11.112805-.8803346-8.780488-3.807164-3.224087 1.7606693-1.166157-5.2705786-18.155488-7.9001533-5.556404.5830801.880335 3.8071639-2.046492 9.0777455 4.973321 4.3902441 2.629575 2.9268286z" fill="#cddc39"/>
    <path d="m72.556405 6.878049-7.602899-.58308c-6.436736 6.139484-14.931401 11.12424-25.461126 13.170731l.285822.58308 3.224084 4.687502c12.587655-3.224087 22.5343-10.243903 29.554119-17.858233z" fill="#7cb342"/>
    <path d="m52.78125 115.22656c.05696.0103.110949.0289.167969.0391.0088-.003.01664-.007.02539-.01-.06402-.0112-.129418-.0179-.193359-.0293z" fill="#ffc107" transform="translate(0 -80)"/>
    <path d="m30.513672 105.89648c-.03433.00006-.06524.006-.09961.006.205208.14285.427953.25444.634766.39454-.183547-.12686-.353218-.2714-.535156-.4004z" fill="#ffc107" transform="translate(0 -80)"/>
    <g transform="matrix(.99265568 0 0 .99265568 .932728 .308461)">
      <path d="m52.128906 204.74609a112 112 0 0 0 4.470703 4.16407 112 112 0 0 0 8.91211 6.77539 112 112 0 0 0 9.544922 5.85156 112 112 0 0 0 10.080078 4.86914 112 112 0 0 0 10.517578 3.83984 112 112 0 0 0 10.847653 2.76953 112 112 0 0 0 11.06836 1.67188 112 112 0 0 0 11.18164.56055 112 112 0 0 0 7.92188-.28125 112 112 0 0 0 3.95508-.48047c10.97901-6.14565 21.09256-13.53599 30.66992-21.51367l10.10937 9.02539a112 112 0 0 0 7.85742-4.50586 112 112 0 0 0 9.10743-6.51172 112 112 0 0 0 8.41015-7.38867 112 112 0 0 0 7.63086-8.19141 112 112 0 0 0 6.77539-8.91211 112 112 0 0 0 5.85157-9.54492 112 112 0 0 0 4.86914-10.08008 112 112 0 0 0 3.83984-10.51758 112 112 0 0 0 .00391-.01367c-1.78357-11.50982-4.56324-25.04663-7.40235-39.24219 2.81765-11.27068 4.00933-21.450291 5.13672-31.580074-.53181-1.415434-.97167-2.876193-1.55859-4.263672-1.41393-3.342498-2.9845-6.60253-4.70508-9.769532-1.72058-3.167001-3.59308-6.244026-5.60156-9.216796-2.00849-2.972769-4.15594-5.839808-6.4336-8.59961-1.78318-2.160652-3.71049-4.193012-5.64843-6.21289-1.72748-1.757736-3.47094-3.484137-5.28321-5.103516-.88332-.807723-1.74726-1.632729-2.65625-2.412109-.99477-.130547-2.23268-1.083997-3.27734-2.705079-1.43005-1.135099-2.90299-2.215954-4.38867-3.28125-.48234-.324446-.96438-.643278-1.44922-.970703-.59738-.574408-1.76786-1.167968-2.36524-1.167968-2.34357-1.171788-4.68786-2.943447-6.45703-4.115235-1.17177-.597457-2.9415-1.170015-4.11328-2.341797-.27967-.279673-.55081-.422095-.82812-.5625-1.27514-.636303-2.55318-1.267057-3.85547-1.855468-1.68405-.809545-3.46341-1.528154-5.2793-2.210938-1.45952-.570787-2.9352-1.106761-4.42383-1.617187-5.88518-1.83159-11.57841-3.370605-17.23437-4.388672-.13659-.023416-.27536-.039581-.41211-.0625-6.09117-1.074057-12.18242-1.664063-18.5625-1.664063-3.62392 0-7.19872.205631-10.73438.542969-.45015.047426-.88615.078393-1.32812.132812-3.52204.378382-6.99964.891872-10.41602 1.589844-.02281.004261-.0475.007438-.07031.011719-1.94429.39853-3.82048.972595-5.72656 1.470703 12.33221 4.506174 20.05273 8.015625 20.05273 8.015625 21.75845 6.47929 40.57445 35.888382 54.10742 86.458987-1.17178 2.94095-2.36922 6.47682-3.54101 9.99218-8.22548 19.41489-39.40301 83.54297-107.044924 83.54297z" fill="#004d40" transform="matrix(.49759882 0 0 .49759882 -1.55867 -81.535431)"/>
      <path d="m65.738281 215.82422a112 112 0 0 0 9.31836 5.71289 112 112 0 0 0 10.080078 4.86914 112 112 0 0 0 10.517578 3.83984 112 112 0 0 0 10.847653 2.76953 112 112 0 0 0 5.56641.83985c44.01544-14.58144 77.26721-48.30783 97.46484-97.94531 9.37991-23.42688 12.89056-49.762995 12.35352-73.214848-.09425-.140735-.1689-.295269-.26367-.435546-.49136-.727275-1.06632-1.388565-1.57422-2.103516-3.28827-4.494018-6.79077-8.818537-10.60547-12.818359-.50408-.524013-.95464-1.099161-1.46875-1.613282-2.5281-2.528098-5.17575-4.937181-7.93555-7.214843-2.61359-2.156997-5.34339-4.175764-8.14844-6.091797 7.04821 20.588449 5.87521 55.274235-9.40039 92.326171-8.76282 21.03992-42.52691 90.13982-116.751949 91.08008z" fill="#ffc107" transform="matrix(.49759882 0 0 .49759882 -1.55867 -81.535431)"/>
      <path d="m97.148628-1.9024389c-1.463414 2.6295747-2.926829 5.2705786-4.687498 7.6143308-1.16616-7.9115855-2.629575-15.5144841-4.390244-22.2484779.58308-.880334.880335-1.760669 1.177592-2.629572.868903-2.343752 1.749237-4.687501 2.629572-7.03125 1.760672 7.03125 3.509909 14.931401 5.270578 24.2949691zm11.124242-34.8246941c-2.92683-9.660826-6.734-19.024391-11.707319-26.638722 0 0-.297257-.297254-.297257-.297254-.880335-.58308-1.463415-1.16616-2.34375-1.463415 1.177593 3.521342 1.76067 7.614328 2.046495 12.587652 4.390241 9.077742 7.614331 19.60747 9.958081 29.565548 1.16616-4.687499 1.74924-9.363565 2.34375-13.753809z" fill="#ffa000"/>
    </g>
  </g>
  <path d="m128.752 235.248a112 112 0 0 1 -111.999999-112 112 112 0 0 1 .04102-1.16992 112 112 0 0 0 111.958979 111.16992 112 112 0 0 0 111.95898-110.83008 112 112 0 0 1 .041.83008 112 112 0 0 1 -112 112z" opacity=".2"/>
  <path d="m225.7391 178.08578a118.66892 118.1451 0 0 1 -4.38718 7.12447 118.66892 118.1451 0 0 1 -7.17882 9.40109 118.66892 118.1451 0 0 1 -8.08523 8.64084 118.66892 118.1451 0 0 1 -8.91092 7.79406 118.66892 118.1451 0 0 1 -4.59827 3.2738l29.95695 26.3861 30.27565-66.31446z" opacity=".1"/>
  <path d="m128.75195 11.248047a112 112 0 0 0 -5.95507.210937c23.2855 8.324039 55.69732 39.813832 74.92968 173.345706l-30.85156 5.13476 20.56055 18.30664 6.59765 5.83789 28.27344 25.01368 28.57422-62.86524-25.55078 3.50196-3.60352.49414s-.55825-3.41588-1.13867-9.13086c-3.99602-30.87431-19.42263-131.444397-61.14648-154.884769h-.58008c-3.36257-1.30848-6.88739-2.289128-10.47852-3.128907a112 112 0 0 0 -8.44922-1.277343 112 112 0 0 0 -11.18164-.558594z" fill="#ffc107"/>
</svg>

<svg xmlns="http://www.w3.org/2000/svg" xmlns:xlink="http://www.w3.org/1999/xlink" width="256" height="256" version="1.0">
 <defs>
  <linearGradient id="a">
   <stop id="stop2" offset="0" stop-color="#68676b"/>
   <stop id="stop4" offset=".8" stop-color="#424048"/>
   <stop id="stop6" offset="1" stop-color="#241f31"/>
  </linearGradient>
  <radialGradient id="d" cx="279.422" cy="446.483" r="224" fx="279.422" fy="446.483" gradientTransform="matrix(1.34416,6e-4,-6.2e-4,1.38763,-121.22,-718.103)" gradientUnits="userSpaceOnUse" xlink:href="#a"/>
  <linearGradient id="e" x1="43.844" x2="-60" y1="234" y2="234" gradientTransform="matrix(1.0015,0,0,0.99993,72.09,56.015)" gradientUnits="userSpaceOnUse" xlink:href="#b"/>
  <linearGradient id="b">
   <stop id="stop11" offset="0" stop-color="#d5d3cf"/>
   <stop id="stop13" offset=".038" stop-color="#e3e2df"/>
   <stop id="stop15" offset=".077" stop-color="#c0bfbc"/>
   <stop id="stop17" offset=".923" stop-color="#c0bfbc"/>
   <stop id="stop19" offset=".962" stop-color="#e3e2df"/>
   <stop id="stop21" offset="1" stop-color="#d5d3cf"/>
  </linearGradient>
  <filter id="filter4569" width="1.023" height="1.025" x="-.01" y="-.01" style="color-interpolation-filters:sRGB">
   <feGaussianBlur id="feGaussianBlur22" stdDeviation="1.16"/>
  </filter>
  <filter id="filter938" width="1.046" height="1.05" x="-.02" y="-.03" style="color-interpolation-filters:sRGB">
   <feGaussianBlur id="feGaussianBlur19" stdDeviation="2.32"/>
  </filter>
  <linearGradient id="linearGradient878" x1="32" x2="272" y1="156" y2="156" gradientTransform="matrix(0,0.26458333,-0.26458333,0,74.498196,223.03096)" gradientUnits="userSpaceOnUse">
   <stop style="stop-color:#da1636" id="stop14" offset="0"/>
   <stop style="stop-color:#f22c42" id="stop16" offset="1"/>
  </linearGradient>
  <linearGradient id="linearGradient1108" x1="296" x2="296" y1="-212" y2="236" gradientUnits="userSpaceOnUse">
   <stop style="stop-color:#ffffff" id="stop2-3" offset="0"/>
   <stop style="stop-color:#ffffff;stop-opacity:.09803922" id="stop4-6" offset=".125"/>
   <stop style="stop-color:#000000;stop-opacity:.09803922" id="stop6-7" offset=".925"/>
   <stop style="stop-color:#000000;stop-opacity:.49803922" id="stop8" offset="1"/>
  </linearGradient>
  <clipPath id="clipPath1082-3-367">
   <path style="fill:#8c59d9" d="M 361.9375,-212 C 507.2348,-212 528,-191.28677 528,-46.125 V 70.125 C 528,215.28618 507.2348,236 361.9375,236 H 214.0625 C 68.7652,236 48,215.28618 48,70.125 V -46.125 C 48,-191.28677 68.7652,-212 214.0625,-212 Z"/>
  </clipPath>
  <filter style="color-interpolation-filters:sRGB" id="filter11191" width="1.024" height="1.024" x="-.01" y="-.01">
   <feGaussianBlur id="feGaussianBlur11193" stdDeviation="1.12"/>
  </filter>
  <filter style="color-interpolation-filters:sRGB" id="filter11210" width="1.096" height="1.096" x="-.05" y="-.05">
   <feGaussianBlur id="feGaussianBlur11212" stdDeviation="4.48"/>
  </filter>
  <filter style="color-interpolation-filters:sRGB" id="filter985" width="1.025" height="1.023" x="-.01" y="-.01">
   <feGaussianBlur id="feGaussianBlur987" stdDeviation=".316"/>
  </filter>
 </defs>
 <path style="opacity:0.1;filter:url(#filter985)" d="m 225.7391,178.08578 a 118.66892,118.1451 0 0 1 -4.38718,7.12447 118.66892,118.1451 0 0 1 -7.17882,9.40109 118.66892,118.1451 0 0 1 -8.08523,8.64084 118.66892,118.1451 0 0 1 -8.91092,7.79406 118.66892,118.1451 0 0 1 -4.59827,3.2738 l 29.95695,26.3861 30.27565,-66.31446 z"/>
 <circle style="opacity:0.1;filter:url(#filter11210)" cx="128.752" cy="127.248" r="112"/>
 <circle style="opacity:0.1;filter:url(#filter11191)" cx="128.752" cy="125.248" r="112"/>
 <circle style="opacity:0.1" cx="128.752" cy="123.248" r="114"/>
 <circle style="fill:#006064" cx="128.752" cy="123.248" r="112"/>
 <path style="opacity:0.3;fill:#ffffff" d="M 128.752,11.248003 A 112,112 0 0 0 16.752001,123.248 112,112 0 0 0 16.793021,124.41792 112,112 0 0 1 128.752,13.248003 112,112 0 0 1 240.71098,124.07808 a 112,112 0 0 0 0.041,-0.83008 112,112 0 0 0 -112,-111.999997 z"/>
 <g id="surface1" transform="matrix(2.0245198,0,0,2.0245198,1.2440566,163.23328)">
  <path style="fill:#004d40" d="m 90.011719,108.88867 c -0.272868,0.15501 -0.527013,0.33778 -0.802735,0.48828 l 0.03906,0.0352 c 0.27136,-0.15147 0.49505,-0.36789 0.763672,-0.52344 z" transform="translate(0,-80)"/>
  <path style="fill:#004d40" d="m 98.757812,18.333984 c 0.452311,0.387819 0.882731,0.79925 1.322268,1.201172 -0.405228,-0.362094 -0.769072,-0.792479 -1.181642,-1.140625 -0.04002,0 -0.098,-0.05495 -0.140626,-0.06055 z" transform="translate(0,-80)"/>
  <path style="fill:#004d40" d="m 94.943359,15.355469 c 0.739273,0.53009 1.472001,1.067988 2.183594,1.632812 -0.08764,-0.136002 -0.19704,-0.196813 -0.275391,-0.353515 -0.639079,-0.423288 -1.272424,-0.851637 -1.908203,-1.279297 z" transform="translate(0,-80)"/>
  <path style="fill:#cddc39" d="m 22.217227,-9.5167668 -5.270579,-5.2591472 -4.676069,-2.926829 -0.297255,-9.660825 1.177592,-7.317074 4.973321,-7.031247 7.019819,-7.900154 0.58308,-4.092989 -3.509909,-2.046492 8.494665,-1.760672 6.436736,2.926829 -2.046492,2.34375 7.317073,-1.463415 6.722561,0.58308 -8.483233,4.390244 -2.629572,2.629575 0.868903,4.984756 2.926829,0.583077 2.926829,-4.973321 4.104419,-2.641007 4.092989,2.046495 1.463415,3.807164 -8.483233,4.104421 2.926829,2.046492 -9.077743,2.926829 -4.676066,4.973324 -7.031251,4.092989 -0.285822,4.984756 -4.687502,-6.44817 -5.853658,0.297254 -1.76067,5.853659 z m 36.88262,-54.4321682 -2.343749,3.212655 3.807164,5.567833 -0.880334,2.629575 2.926829,2.926829 7.614331,-6.733993 -1.760673,-2.046495 0.297258,-3.212651 -4.390244,-3.224087 z m -20.785059,79.904729 1.463414,4.092986 3.224084,4.687502 C 55.589941,21.809453 65.239331,14.778202 72.556405,6.878049 L 61.4436,5.9977144 52.663112,2.1905504 49.439025,3.9512197 48.272868,-1.3193589 30.11738,-9.2195122 l -5.556404,0.5830801 0.880335,3.8071639 -2.046492,9.0777455 4.973321,4.3902441 2.629575,2.9268286 z"/>
  <path style="fill:#7cb342" d="M 72.556405,6.878049 64.953506,6.294969 C 58.51677,12.434453 50.022105,17.419209 39.49238,19.4657 l 0.285822,0.58308 3.224084,4.687502 C 55.589941,21.512195 65.536586,14.492379 72.556405,6.878049 Z"/>
  <path style="fill:#ffc107" d="m 52.78125,115.22656 c 0.05696,0.0103 0.110949,0.0289 0.167969,0.0391 0.0088,-0.003 0.01664,-0.007 0.02539,-0.01 -0.06402,-0.0112 -0.129418,-0.0179 -0.193359,-0.0293 z" transform="translate(0,-80)"/>
  <path style="fill:#ffc107" d="m 30.513672,105.89648 c -0.03433,6e-5 -0.06524,0.006 -0.09961,0.006 0.205208,0.14285 0.427953,0.25444 0.634766,0.39454 -0.183547,-0.12686 -0.353218,-0.2714 -0.535156,-0.4004 z" transform="translate(0,-80)"/>
  <g transform="matrix(0.99265568,0,0,0.99265568,0.93272817,0.30846128)">
   <path style="fill:#004d40" d="M 52.128906 204.74609 A 112 112 0 0 0 56.599609 208.91016 A 112 112 0 0 0 65.511719 215.68555 A 112 112 0 0 0 75.056641 221.53711 A 112 112 0 0 0 85.136719 226.40625 A 112 112 0 0 0 95.654297 230.24609 A 112 112 0 0 0 106.50195 233.01562 A 112 112 0 0 0 117.57031 234.6875 A 112 112 0 0 0 128.75195 235.24805 A 112 112 0 0 0 136.67383 234.9668 A 112 112 0 0 0 140.62891 234.48633 C 151.60792 228.34068 161.72147 220.95034 171.29883 212.97266 L 181.4082 221.99805 A 112 112 0 0 0 189.26562 217.49219 A 112 112 0 0 0 198.37305 210.98047 A 112 112 0 0 0 206.7832 203.5918 A 112 112 0 0 0 214.41406 195.40039 A 112 112 0 0 0 221.18945 186.48828 A 112 112 0 0 0 227.04102 176.94336 A 112 112 0 0 0 231.91016 166.86328 A 112 112 0 0 0 235.75 156.3457 A 112 112 0 0 0 235.75391 156.33203 C 233.97034 144.82221 231.19067 131.2854 228.35156 117.08984 C 231.16921 105.81916 232.36089 95.639549 233.48828 85.509766 C 232.95647 84.094332 232.51661 82.633573 231.92969 81.246094 C 230.51576 77.903596 228.94519 74.643564 227.22461 71.476562 C 225.50403 68.309561 223.63153 65.232536 221.62305 62.259766 C 219.61456 59.286997 217.46711 56.419958 215.18945 53.660156 C 213.40627 51.499504 211.47896 49.467144 209.54102 47.447266 C 207.81354 45.68953 206.07008 43.963129 204.25781 42.34375 C 203.37449 41.536027 202.51055 40.711021 201.60156 39.931641 C 200.60679 39.801094 199.36888 38.847644 198.32422 37.226562 C 196.89417 36.091463 195.42123 35.010608 193.93555 33.945312 C 193.45321 33.620866 192.97117 33.302034 192.48633 32.974609 C 191.88895 32.400201 190.71847 31.806641 190.12109 31.806641 C 187.77752 30.634853 185.43323 28.863194 183.66406 27.691406 C 182.49229 27.093949 180.72256 26.521391 179.55078 25.349609 C 179.27111 25.069936 178.99997 24.927514 178.72266 24.787109 C 177.44752 24.150806 176.16948 23.520052 174.86719 22.931641 C 173.18314 22.122096 171.40378 21.403487 169.58789 20.720703 C 168.12837 20.149916 166.65269 19.613942 165.16406 19.103516 C 159.27888 17.271926 153.58565 15.732911 147.92969 14.714844 C 147.7931 14.691428 147.65433 14.675263 147.51758 14.652344 C 141.42641 13.578287 135.33516 12.988281 128.95508 12.988281 C 125.33116 12.988281 121.75636 13.193912 118.2207 13.53125 C 117.77055 13.578676 117.33455 13.609643 116.89258 13.664062 C 113.37054 14.042444 109.89294 14.555934 106.47656 15.253906 C 106.45375 15.258167 106.42906 15.261344 106.40625 15.265625 C 104.46196 15.664155 102.58577 16.23822 100.67969 16.736328 C 113.0119 21.242502 120.73242 24.751953 120.73242 24.751953 C 142.49087 31.231243 161.30687 60.640335 174.83984 111.21094 C 173.66806 114.15189 172.47062 117.68776 171.29883 121.20312 C 163.07335 140.61801 131.89582 204.74609 64.253906 204.74609 L 52.128906 204.74609 z" transform="matrix(0.49759882,0,0,0.49759882,-1.5586702,-81.535431)"/>
   <path style="fill:#ffc107" d="M 65.738281 215.82422 A 112 112 0 0 0 75.056641 221.53711 A 112 112 0 0 0 85.136719 226.40625 A 112 112 0 0 0 95.654297 230.24609 A 112 112 0 0 0 106.50195 233.01562 A 112 112 0 0 0 112.06836 233.85547 C 156.0838 219.27403 189.33557 185.54764 209.5332 135.91016 C 218.91311 112.48328 222.42376 86.147165 221.88672 62.695312 C 221.79247 62.554577 221.71782 62.400043 221.62305 62.259766 C 221.13169 61.532491 220.55673 60.871201 220.04883 60.15625 C 216.76056 55.662232 213.25806 51.337713 209.44336 47.337891 C 208.93928 46.813878 208.48872 46.23873 207.97461 45.724609 C 205.44651 43.196511 202.79886 40.787428 200.03906 38.509766 C 197.42547 36.352769 194.69567 34.334002 191.89062 32.417969 C 198.93883 53.006418 197.76583 87.692204 182.49023 124.74414 C 173.72741 145.78406 139.96332 214.88396 65.738281 215.82422 z" transform="matrix(0.49759882,0,0,0.49759882,-1.5586702,-81.535431)"/>
   <path d="M 97.148628,-1.9024389 C 95.685214,0.7271358 94.221799,3.3681397 92.46113,5.7118919 91.29497,-2.1996936 89.831555,-9.8025922 88.070886,-16.536586 c 0.58308,-0.880334 0.880335,-1.760669 1.177592,-2.629572 0.868903,-2.343752 1.749237,-4.687501 2.629572,-7.03125 1.760672,7.03125 3.509909,14.931401 5.270578,24.2949691 z M 108.27287,-36.727133 c -2.92683,-9.660826 -6.734,-19.024391 -11.707319,-26.638722 0,0 -0.297257,-0.297254 -0.297257,-0.297254 -0.880335,-0.58308 -1.463415,-1.16616 -2.34375,-1.463415 1.177593,3.521342 1.76067,7.614328 2.046495,12.587652 4.390241,9.077742 7.614331,19.60747 9.958081,29.565548 1.16616,-4.687499 1.74924,-9.363565 2.34375,-13.753809 z" style="fill:#ffa000"/>
  </g>
 </g>
 <path style="opacity:0.2" d="m 128.752,235.248 a 112,112 0 0 1 -111.999999,-112 112,112 0 0 1 0.04102,-1.16992 A 112,112 0 0 0 128.752,233.248 112,112 0 0 0 240.71098,122.41792 a 112,112 0 0 1 0.041,0.83008 112,112 0 0 1 -112,112 z"/>
 <path d="m 225.7391,178.08578 a 118.66892,118.1451 0 0 1 -4.38718,7.12447 118.66892,118.1451 0 0 1 -7.17882,9.40109 118.66892,118.1451 0 0 1 -8.08523,8.64084 118.66892,118.1451 0 0 1 -8.91092,7.79406 118.66892,118.1451 0 0 1 -4.59827,3.2738 l 29.95695,26.3861 30.27565,-66.31446 z" style="opacity:0.1"/>
 <path style="fill:#ffc107" d="M 128.75195 11.248047 A 112 112 0 0 0 122.79688 11.458984 C 146.08238 19.783023 178.4942 51.272816 197.72656 184.80469 L 166.875 189.93945 L 187.43555 208.24609 L 194.0332 214.08398 L 222.30664 239.09766 L 250.88086 176.23242 L 225.33008 179.73438 L 221.72656 180.22852 C 221.72656 180.22852 221.16831 176.81264 220.58789 171.09766 C 216.59187 140.22335 201.16526 39.653263 159.44141 16.212891 L 158.86133 16.212891 C 155.49876 14.904411 151.97394 13.923763 148.38281 13.083984 A 112 112 0 0 0 139.93359 11.806641 A 112 112 0 0 0 128.75195 11.248047 z"/>
</svg>
